X: 1
T: Rob the Piper
C: Trad.
R: Waltz
%Q: 200
S: Davidson's Musical Miracles 1859
S: https://musescore.com/laura-church/traditional-music-rob-the-piper
S: abcnotation.com image
Z: 2020-03-19 John Chambers <jc:trillian.mit.edu>
M: 3/4
L: 1/8
K: D
|: AB AB AG  | FE FG FE | DE  DE FG | AB AB A2 | AB AB AG  | FE FG FE | DE  DE FE | D6 :|
[| FE DE FD  | E2 A2 A2 | AG  FG AF | G2 B2 B2 | Bc dc BA  | G2 E2 E2 | A^G AB cA | d2 d2 d2 |
 | AB AB A=G | FE FG FE | DE  DE FG | AB AB A2 | AB AB AG  | FE FG FE | DE  DE FE | D6 |]
